src/24x24/places/folder-gruvbox-material-red-projects.svg

<?xml version="1.0" encoding="UTF-8"?>
<svg width="24" height="24" version="1" xmlns="http://www.w3.org/2000/svg">
 <rect x="2" y="9.5" width="20" height="12" rx="1" ry="1" opacity=".2"/>
 <path d="m2 17c0 0.554 0.446 1 1 1h18c0.554 0 1-0.446 1-1v-11c0-0.554-0.446-1-1-1h-9c-1.5 0-2-2-3.5-2h-5.5c-0.554 0-1 0.446-1 1" fill="#c14a4a"/>
 <rect x="2" y="8.5" width="20" height="12" rx="1" ry="1" opacity=".2"/>
 <rect x="4" y="7" width="16" height="8" rx="1" ry="1" fill="#f0ddc3"/>
 <rect x="2" y="9" width="20" height="12" rx="1" ry="1" fill="#ea6962"/>
 <path d="m3 3c-0.554 0-1 0.446-1 1v0.5c0-0.554 0.446-1 1-1h5.5c1.5 0 2 2 3.5 2h9c0.554 0 1 0.446 1 1v-0.5c0-0.554-0.446-1-1-1h-9c-1.5 0-2-2-3.5-2z" fill="#f0ddc3" opacity=".1"/>
 <path d="m14 11c-0.6 0.212-1 0.777-1 1.412 0 0.652 0.419 1.202 1 1.408v1.18c0.456 0.304 0.781 0.695 1 1.088v-2.268c0.581-0.206 1-0.756 1-1.408 0-0.635-0.4-1.2-1-1.412v1c0 0.277-0.223 0.5-0.5 0.5s-0.5-0.223-0.5-0.5zm-2 4c-3 0-3 3-3 3h-1v1h8v-1h-1s0-3-3-3zm0 1c2 0 2 2 2 2h-4s0-2 2-2z" fill="#543937"/>
</svg>

<svg xmlns="http://www.w3.org/2000/svg" width="24" height="24" version="1">
 <rect style="opacity:0.2" width="20" height="12" x="2" y="9.5" rx="1" ry="1"/>
 <path style="fill:#c14a4a" d="M 2,17 C 2,17.554 2.446,18 3,18 H 21 C 21.554,18 22,17.554 22,17 V 6 C 22,5.446 21.554,5 21,5 H 12 C 10.5,5 10,3 8.5,3 H 3 C 2.446,3 2,3.446 2,4"/>
 <rect style="opacity:0.2" width="20" height="12" x="2" y="8.5" rx="1" ry="1"/>
 <rect style="fill:#f0ddc3" width="16" height="8" x="4" y="7" rx="1" ry="1"/>
 <rect style="fill:#ea6962" width="20" height="12" x="2" y="9" rx="1" ry="1"/>
 <path style="opacity:0.1;fill:#f0ddc3" d="M 3,3 C 2.446,3 2,3.446 2,4 V 4.5 C 2,3.946 2.446,3.5 3,3.5 H 8.5 C 10,3.5 10.5,5.5 12,5.5 H 21 C 21.554,5.5 22,5.946 22,6.5 V 6 C 22,5.446 21.554,5 21,5 H 12 C 10.5,5 10,3 8.5,3 Z"/>
 <path style="fill:#543937" d="M 14,11 C 13.4,11.212 13,11.777 13,12.412 13,13.064 13.419,13.614 14,13.82 V 15 C 14.456,15.304 14.781,15.695 15,16.088 V 13.82 C 15.581,13.614 16,13.064 16,12.412 16,11.777 15.6,11.212 15,11 V 12 C 15,12.277 14.777,12.5 14.5,12.5 14.223,12.5 14,12.277 14,12 Z M 12,15 C 9,15 9,18 9,18 H 8 V 19 H 16 V 18 H 15 C 15,18 15,15 12,15 Z M 12,16 C 14,16 14,18 14,18 H 10 C 10,18 10,16 12,16 Z"/>
</svg>
